jinttai/CVAE/results_rmat/opt_nn_lbfgs/q_traj_mlp.csv
t,J1,J2,J3,J4,J5,J6
0.000000000000000000e+00,0.000000000000000000e+00,0.000000000000000000e+00,0.000000000000000000e+00,0.000000000000000000e+00,0.000000000000000000e+00,0.000000000000000000e+00
1.010101010101010083e-01,-1.062574889510869980e-02,-8.809594437479972839e-03,-2.646635985001921654e-03,-4.619053099304437637e-03,1.202824525535106659e-02,8.387832902371883392e-03
2.020202020202020166e-01,-4.128862172365188599e-02,-3.423156589269638062e-02,-1.028406992554664612e-02,-1.794832013547420502e-02,4.673831909894943237e-02,3.259272128343582153e-02
3.030303030303030387e-01,-9.016705304384231567e-02,-7.475569099187850952e-02,-2.245859242975711823e-02,-3.919595852494239807e-02,1.020682379603385925e-01,7.117674499750137329e-02
4.040404040404040331e-01,-1.554395109415054321e-01,-1.288717836141586304e-01,-3.871650248765945435e-02,-6.757014244794845581e-02,1.759560406208038330e-01,1.227020099759101868e-01
5.050505050505050830e-01,-2.352844178676605225e-01,-1.950695961713790894e-01,-5.860408022999763489e-02,-1.022790297865867615e-01,2.663397192955017090e-01,1.857305765151977539e-01
6.060606060606060774e-01,-3.278802037239074707e-01,-2.718388736248016357e-01,-8.166760951280593872e-02,-1.425307691097259521e-01,3.711572289466857910e-01,2.588245272636413574e-01
7.070707070707070718e-01,-4.314053356647491455e-01,-3.576695024967193604e-01,-1.074534058570861816e-01,-1.875335276126861572e-01,4.883466958999633789e-01,3.405459821224212646e-01
8.080808080808080662e-01,-5.440382957458496094e-01,-4.510512351989746094e-01,-1.355077475309371948e-01,-2.364955097436904907e-01,6.158460974693298340e-01,4.294570386409759521e-01
9.090909090909090606e-01,-6.639574170112609863e-01,-5.504737496376037598e-01,-1.653769165277481079e-01,-2.886247932910919189e-01,7.515934109687805176e-01,5.241196751594543457e-01
1.010101010101010166e+00,-7.893412709236145020e-01,-6.544269919395446777e-01,-1.966072320938110352e-01,-3.431296348571777344e-01,8.935267329216003418e-01,6.230961084365844727e-01
1.111111111111111160e+00,-9.183681011199951172e-01,-7.614005804061889648e-01,-2.287449240684509277e-01,-3.992180824279785156e-01,1.039583921432495117e+00,7.249482870101928711e-01
1.212121212121212155e+00,-1.049216628074645996e+00,-8.698844313621520996e-01,-2.613363564014434814e-01,-4.560984373092651367e-01,1.187703132629394531e+00,8.282384872436523438e-01
1.313131313131313149e+00,-1.180065035820007324e+00,-9.783682227134704590e-01,-2.939277589321136475e-01,-5.129787325859069824e-01,1.335822224617004395e+00,9.315285682678222656e-01
1.414141414141414144e+00,-1.309092044830322266e+00,-1.085341930389404297e+00,-3.260655105113983154e-01,-5.690672397613525391e-01,1.481879591941833496e+00,1.033380866050720215e+00
1.515151515151515138e+00,-1.434475898742675781e+00,-1.189295172691345215e+00,-3.572958111763000488e-01,-6.235721111297607422e-01,1.623812913894653320e+00,1.132357358932495117e+00
1.616161616161616132e+00,-1.554394841194152832e+00,-1.288717508316040039e+00,-3.871649205684661865e-01,-6.757013201713562012e-01,1.759559988975524902e+00,1.227019786834716797e+00
1.717171717171717127e+00,-1.667027950286865234e+00,-1.382099390029907227e+00,-4.152193367481231689e-01,-7.246633768081665039e-01,1.887059688568115234e+00,1.315931081771850586e+00
1.818181818181818121e+00,-1.770553112030029297e+00,-1.467929959297180176e+00,-4.410051107406616211e-01,-7.696661353111267090e-01,2.004249095916748047e+00,1.397652387619018555e+00
1.919191919191919116e+00,-1.863148927688598633e+00,-1.544699430465698242e+00,-4.640686810016632080e-01,-8.099179267883300781e-01,2.109066724777221680e+00,1.470746517181396484e+00
2.020202020202020332e+00,-1.942993760108947754e+00,-1.610897064208984375e+00,-4.839562177658081055e-01,-8.446267247200012207e-01,2.199450254440307617e+00,1.533774971961975098e+00
2.121212121212121104e+00,-2.008266210556030273e+00,-1.665013194084167480e+00,-5.002140998840332031e-01,-8.730009198188781738e-01,2.273338079452514648e+00,1.585300207138061523e+00
2.222222222222222321e+00,-2.057144641876220703e+00,-1.705537199974060059e+00,-5.123886466026306152e-01,-8.942485451698303223e-01,2.328667879104614258e+00,1.623884201049804688e+00
2.323232323232323093e+00,-2.087807416915893555e+00,-1.730959296226501465e+00,-5.200260877609252930e-01,-9.075778126716613770e-01,2.363378047943115234e+00,1.648089170455932617e+00
2.424242424242424310e+00,-2.098433256149291992e+00,-1.739768862724304199e+00,-5.226727128028869629e-01,-9.121968746185302734e-01,2.375406265258789062e+00,1.656476974487304688e+00
2.525252525252525082e+00,-2.098433256149291992e+00,-1.739768862724304199e+00,-5.226727128028869629e-01,-9.121968746185302734e-01,2.375406265258789062e+00,1.656476974487304688e+00
2.626262626262626299e+00,-2.080526828765869141e+00,-1.723259925842285156e+00,-5.077607631683349609e-01,-8.965738415718078613e-01,2.371752262115478516e+00,1.660319924354553223e+00
2.727272727272727071e+00,-2.028854370117187500e+00,-1.675619721412658691e+00,-4.647290706634521484e-01,-8.514903187751770020e-01,2.361207962036132812e+00,1.671409487724304199e+00
2.828282828282828287e+00,-1.946485161781311035e+00,-1.599678397178649902e+00,-3.961340188980102539e-01,-7.796244621276855469e-01,2.344399690628051758e+00,1.689087033271789551e+00
2.929292929292929060e+00,-1.836489081382751465e+00,-1.498266100883483887e+00,-3.045319318771362305e-01,-6.836544871330261230e-01,2.321953773498535156e+00,1.712693691253662109e+00
3.030303030303030276e+00,-1.701935648918151855e+00,-1.374212861061096191e+00,-1.924791634082794189e-01,-5.662587285041809082e-01,2.294496536254882812e+00,1.741570591926574707e+00
3.131313131313131048e+00,-1.545894742012023926e+00,-1.230348944664001465e+00,-6.253206729888916016e-02,-4.301153719425201416e-01,2.262654781341552734e+00,1.775058984756469727e+00
3.232323232323232265e+00,-1.371435880661010742e+00,-1.069504261016845703e+00,8.275306224822998047e-02,-2.779026031494140625e-01,2.227054357528686523e+00,1.812500238418579102e+00
3.333333333333333481e+00,-1.181628584861755371e+00,-8.945091366767883301e-01,2.408199310302734375e-01,-1.122986078262329102e-01,2.188322067260742188e+00,1.853235363960266113e+00
3.434343434343434254e+00,-9.795428514480590820e-01,-7.081935405731201172e-01,4.091120362281799316e-01,6.401818990707397461e-02,2.147084236145019531e+00,1.896605610847473145e+00
3.535353535353535470e+00,-7.682479619979858398e-01,-5.133875608444213867e-01,5.850732922554016113e-01,2.483698129653930664e-01,2.103967189788818359e+00,1.941952228546142578e+00
3.636363636363636243e+00,-5.508139133453369141e-01,-3.129215240478515625e-01,7.661470770835876465e-01,4.380776882171630859e-01,2.059597492218017578e+00,1.988616466522216797e+00
3.737373737373737459e+00,-3.303101062774658203e-01,-1.096252202987670898e-01,9.497773051261901855e-01,6.304639577865600586e-01,2.014601230621337891e+00,2.035939455032348633e+00
3.838383838383838231e+00,-1.098065376281738281e-01,9.367096424102783203e-02,1.133407354354858398e+00,8.228501081466674805e-01,1.969604969024658203e+00,2.083262443542480469e+00
3.939393939393939448e+00,1.076278686523437500e-01,2.941371202468872070e-01,1.314481258392333984e+00,1.012558221817016602e+00,1.925235033035278320e+00,2.129926681518554688e+00
4.040404040404040664e+00,3.189225196838378906e-01,4.889432191848754883e-01,1.490442514419555664e+00,1.196909666061401367e+00,1.882117986679077148e+00,2.175273418426513672e+00
4.141414141414140992e+00,5.210082530975341797e-01,6.752585172653198242e-01,1.658734560012817383e+00,1.373226404190063477e+00,1.840880274772644043e+00,2.218643665313720703e+00
4.242424242424242209e+00,7.108156681060791016e-01,8.502539396286010742e-01,1.816801786422729492e+00,1.538830518722534180e+00,1.802147865295410156e+00,2.259378671646118164e+00
4.343434343434343425e+00,8.852746486663818359e-01,1.011098504066467285e+00,1.962086677551269531e+00,1.691043376922607422e+00,1.766547679901123047e+00,2.296819925308227539e+00
4.444444444444444642e+00,1.041315793991088867e+00,1.154962658882141113e+00,2.092034101486206055e+00,1.827186822891235352e+00,1.734705686569213867e+00,2.330308437347412109e+00
4.545454545454544970e+00,1.175868749618530273e+00,1.279015660285949707e+00,2.204086542129516602e+00,1.944582462310791016e+00,1.707248687744140625e+00,2.359185218811035156e+00
4.646464646464646187e+00,1.285865068435668945e+00,1.380427956581115723e+00,2.295688629150390625e+00,2.040552377700805664e+00,1.684802770614624023e+00,2.382791996002197266e+00
4.747474747474747403e+00,1.368233919143676758e+00,1.456369042396545410e+00,2.364283561706542969e+00,2.112418174743652344e+00,1.667994499206542969e+00,2.400469303131103516e+00
4.848484848484848619e+00,1.419906616210937500e+00,1.504009366035461426e+00,2.407315492630004883e+00,2.157501697540283203e+00,1.657450079917907715e+00,2.411559104919433594e+00
4.949494949494949836e+00,1.437813043594360352e+00,1.520518422126770020e+00,2.422227382659912109e+00,2.173124790191650391e+00,1.653796076774597168e+00,2.415401935577392578e+00
5.050505050505050164e+00,1.437813162803649902e+00,1.520518541336059570e+00,2.422227382659912109e+00,2.173124790191650391e+00,1.653796076774597168e+00,2.415401935577392578e+00
5.151515151515151381e+00,1.418378114700317383e+00,1.518018722534179688e+00,2.418677568435668945e+00,2.151417970657348633e+00,1.657613039016723633e+00,2.391051054000854492e+00
5.252525252525252597e+00,1.362294197082519531e+00,1.510805130004882812e+00,2.408433437347412109e+00,2.088778018951416016e+00,1.668627738952636719e+00,2.320781469345092773e+00
5.353535353535353813e+00,1.272893071174621582e+00,1.499306201934814453e+00,2.392104148864746094e+00,1.988926410675048828e+00,1.686185836791992188e+00,2.208767652511596680e+00
5.454545454545454142e+00,1.153506517410278320e+00,1.483950495719909668e+00,2.370297670364379883e+00,1.855584025382995605e+00,1.709632873535156250e+00,2.059184074401855469e+00
5.555555555555555358e+00,1.007466197013854980e+00,1.465166568756103516e+00,2.343622684478759766e+00,1.692472338676452637e+00,1.738314747810363770e+00,1.876204967498779297e+00
5.656565656565656575e+00,8.381038904190063477e-01,1.443382859230041504e+00,2.312688112258911133e+00,1.503312349319458008e+00,1.771576881408691406e+00,1.664004921913146973e+00
5.757575757575757791e+00,6.487511992454528809e-01,1.419028043746948242e+00,2.278101921081542969e+00,1.291825294494628906e+00,1.808765053749084473e+00,1.426758289337158203e+00
5.858585858585858119e+00,4.427398443222045898e-01,1.392530560493469238e+00,2.240473270416259766e+00,1.061732292175292969e+00,1.849224925041198730e+00,1.168639421463012695e+00
5.959595959595959336e+00,2.234017848968505859e-01,1.364318847656250000e+00,2.200410366058349609e+00,8.167546987533569336e-01,1.892302155494689941e+00,8.938230276107788086e-01
6.060606060606060552e+00,-5.931496620178222656e-03,1.334821581840515137e+00,2.158521652221679688e+00,5.606132745742797852e-01,1.937342405319213867e+00,6.064831018447875977e-01
6.161616161616161769e+00,-2.419281005859375000e-01,1.304467320442199707e+00,2.115415811538696289e+00,2.970298528671264648e-01,1.983691215515136719e+00,3.107945919036865234e-01
6.262626262626262097e+00,-4.812566041946411133e-01,1.273684501647949219e+00,2.071701526641845703e+00,2.972507476806640625e-02,2.030694484710693359e+00,1.093149185180664062e-02
6.363636363636363313e+00,-7.205847501754760742e-01,1.242901682853698730e+00,2.027987241744995117e+00,-2.375795841217041016e-01,2.077697753906250000e+00,-2.889313697814941406e-01
6.464646464646464530e+00,-9.565817117691040039e-01,1.212547302246093750e+00,1.984881401062011719e+00,-5.011632442474365234e-01,2.124046802520751953e+00,-5.846202373504638672e-01
6.565656565656565746e+00,-1.185915112495422363e+00,1.183050155639648438e+00,1.942992806434631348e+00,-7.573044300079345703e-01,2.169086933135986328e+00,-8.719599246978759766e-01
6.666666666666666963e+00,-1.405252814292907715e+00,1.154838562011718750e+00,1.902929902076721191e+00,-1.002281904220581055e+00,2.212164163589477539e+00,-1.146776199340820312e+00
6.767676767676767291e+00,-1.611264586448669434e+00,1.128340959548950195e+00,1.865301012992858887e+00,-1.232375383377075195e+00,2.252624034881591797e+00,-1.404895305633544922e+00
6.868686868686868507e+00,-1.800617098808288574e+00,1.103986024856567383e+00,1.830714941024780273e+00,-1.443862199783325195e+00,2.289812326431274414e+00,-1.642141819000244141e+00
6.969696969696969724e+00,-1.969979643821716309e+00,1.082202434539794922e+00,1.799780249595642090e+00,-1.633022546768188477e+00,2.323074340820312500e+00,-1.854342460632324219e+00
7.070707070707070940e+00,-2.116019725799560547e+00,1.063418507575988770e+00,1.773105382919311523e+00,-1.796133756637573242e+00,2.351756095886230469e+00,-2.037321090698242188e+00
7.171717171717171269e+00,-2.235406398773193359e+00,1.048062801361083984e+00,1.751298904418945312e+00,-1.929476261138916016e+00,2.375203371047973633e+00,-2.186904907226562500e+00
7.272727272727272485e+00,-2.324807167053222656e+00,1.036563873291015625e+00,1.734969615936279297e+00,-2.029327869415283203e+00,2.392761230468750000e+00,-2.298918247222900391e+00
7.373737373737373701e+00,-2.380891323089599609e+00,1.029350280761718750e+00,1.724725484848022461e+00,-2.091967582702636719e+00,2.403776168823242188e+00,-2.369188308715820312e+00
7.474747474747474918e+00,-2.400326251983642578e+00,1.026850461959838867e+00,1.721175670623779297e+00,-2.113674640655517578e+00,2.407593011856079102e+00,-2.393538951873779297e+00
7.575757575757575246e+00,-2.400326251983642578e+00,1.026850461959838867e+00,1.721175670623779297e+00,-2.113674879074096680e+00,2.407593011856079102e+00,-2.393539190292358398e+00
7.676767676767676463e+00,-2.388171911239624023e+00,1.021650791168212891e+00,1.712460279464721680e+00,-2.102972030639648438e+00,2.395401716232299805e+00,-2.381419181823730469e+00
7.777777777777777679e+00,-2.353097677230834961e+00,1.006646275520324707e+00,1.687309980392456055e+00,-2.072086334228515625e+00,2.360221385955810547e+00,-2.346444129943847656e+00
7.878787878787878896e+00,-2.297187328338623047e+00,9.827280044555664062e-01,1.647218942642211914e+00,-2.022852897644042969e+00,2.304141759872436523e+00,-2.290691852569580078e+00
7.979797979797979224e+00,-2.222524166107177734e+00,9.507874250411987305e-01,1.593681097030639648e+00,-1.957106351852416992e+00,2.229252815246582031e+00,-2.216239929199218750e+00
8.080808080808081328e+00,-2.131192445755004883e+00,9.117160439491271973e-01,1.528190851211547852e+00,-1.876681566238403320e+00,2.137644290924072266e+00,-2.125166416168212891e+00
8.181818181818181657e+00,-2.025275230407714844e+00,8.664050698280334473e-01,1.452241897583007812e+00,-1.783413171768188477e+00,2.031406641006469727e+00,-2.019548654556274414e+00
8.282828282828281985e+00,-1.906856417655944824e+00,8.157459497451782227e-01,1.367328643798828125e+00,-1.679136037826538086e+00,1.912629246711730957e+00,-1.901464700698852539e+00
8.383838383838384090e+00,-1.778019428253173828e+00,7.606299519538879395e-01,1.274944901466369629e+00,-1.565685033798217773e+00,1.783402204513549805e+00,-1.772991895675659180e+00
8.484848484848484418e+00,-1.640848040580749512e+00,7.019485235214233398e-01,1.176584959030151367e+00,-1.444894909858703613e+00,1.645815610885620117e+00,-1.636208415031433105e+00
8.585858585858586522e+00,-1.497425675392150879e+00,6.405930519104003906e-01,1.073742628097534180e+00,-1.318600416183471680e+00,1.501959085464477539e+00,-1.493191719055175781e+00
8.686868686868686851e+00,-1.349836230278015137e+00,5.774548053741455078e-01,9.679123163223266602e-01,-1.188636302947998047e+00,1.353922843933105469e+00,-1.346019506454467773e+00
8.787878787878787179e+00,-1.200163125991821289e+00,5.134252309799194336e-01,8.605878353118896484e-01,-1.056837439537048340e+00,1.203796505928039551e+00,-1.196769595146179199e+00
8.888888888888889284e+00,-1.050490140914916992e+00,4.493956565856933594e-01,7.532634735107421875e-01,-9.250386953353881836e-01,1.053670406341552734e+00,-1.047519803047180176e+00
8.989898989898989612e+00,-9.029004573822021484e-01,3.862574100494384766e-01,6.474329233169555664e-01,-7.950744628906250000e-01,9.056339263916015625e-01,-9.003474712371826172e-01
9.090909090909089940e+00,-7.594782114028930664e-01,3.249018788337707520e-01,5.445907115936279297e-01,-6.687799692153930664e-01,7.617775201797485352e-01,-7.573307752609252930e-01
9.191919191919192045e+00,-6.223070621490478516e-01,2.662205696105957031e-01,4.462308883666992188e-01,-5.479899644851684570e-01,6.241909265518188477e-01,-6.205474138259887695e-01
9.292929292929292373e+00,-4.934698343276977539e-01,2.111045122146606445e-01,3.538470268249511719e-01,-4.345387220382690430e-01,4.949637651443481445e-01,-4.920744895935058594e-01
9.393939393939394478e+00,-3.750510215759277344e-01,1.604453921318054199e-01,2.689336538314819336e-01,-3.302617073059082031e-01,3.761863708496093750e-01,-3.739905357360839844e-01
9.494949494949494806e+00,-2.691335678100585938e-01,1.151343584060668945e-01,1.929847002029418945e-01,-2.369931936264038086e-01,2.699484825134277344e-01,-2.683727741241455078e-01
9.595959595959595134e+00,-1.778020858764648438e-01,7.606303691864013672e-02,1.274945735931396484e-01,-1.565685272216796875e-01,1.783401966094970703e-01,-1.772992610931396484e-01
9.696969696969697239e+00,-1.031389236450195312e-01,4.412245750427246094e-02,7.395672798156738281e-02,-9.082198143005371094e-02,1.034512519836425781e-01,-1.028473377227783203e-01
9.797979797979797567e+00,-4.722881317138671875e-02,2.020430564880371094e-02,3.386580944061279297e-02,-4.158854484558105469e-02,4.737162590026855469e-02,-4.709529876708984375e-02
9.898989898989899672e+00,-1.215434074401855469e-02,5.199670791625976562e-03,8.715391159057617188e-03,-1.070284843444824219e-02,1.219129562377929688e-02,-1.212000846862792969e-02
1.000000000000000000e+01,0.000000000000000000e+00,0.000000000000000000e+00,0.000000000000000000e+00,0.000000000000000000e+00,0.000000000000000000e+00,0.000000000000000000e+00
